X: 329
T: Ragtime Annie
C:Trad arr. \251 2019 Ben Paley
B: canberra pickers and fiddlers
B: tunes
M:C|
L:1/8
R: reel
Q: 1/4=95
K:D
V:1 
DE |: F2BF AFBF | AFBA - A2DE | F2BF AFBF | Ac-cc c3B |
ABcA BABc | ABcA BAcB | ABcd egfe |1 decd BcAE :|2 d6 fg |
[| a4 - afd2 | A6 fg | a4 g4 | B6 ef |
gfed cdef | gfed cdef | gfed cBAG | F6 fg |
a4 - afd2 | f6 fe | d4 =c4 | B8 |
gb-bb - bage | fa-ab afdB | ABcd egfe | d6 !fine!|]
c2 |: B4 BAG=F | Ec-cd c4 | FGFE DEFD | GABc BAGE |
D2Bc BAG=F | Ec-cd c4 | FGFE DEFE |1 GAGF G2A2 :|2 GEDB, G,2 |]
% abcbook-tune_id 63da5934f9d10dbcc60315e2
% abcbook-tune_composer_id 
% abcbook-link-0 https://www.youtube.com/watch?v=_IFPTm1Z0GY
% abcbook-link-end-at-0 129
% abcbook-boost 0
% abcbook-difficulty 0
% abcbook-tags canberra pickers and fiddlers,old time tunes,© free
% abcbook-tablature 
% abcbook-transpose 
% abcbook-tuning ADAE
% abcbook-lastupdated 1729569638457
% abcbook-src-url https://tunebook.net/scrape/tunes.abc
% abcbook-soundfonts 
% abcbook-repeats 1
%%gchordfont "itim-music,Itim" 20

